Sources/FrostedUI/Resources/Icons.xcassets/pin20.imageset/pin-20.svg

<svg width="20" height="20" viewBox="0 0 20 20" fill="none" xmlns="http://www.w3.org/2000/svg" data-fui-icon="true">
  <path
    d="M12.4501 1C13.8582 1.00011 14.9998 2.14163 14.9999 3.5498V7.62695C14.9999 7.8311 15.0498 8.03253 15.1454 8.21289L16.7596 11.2549C17.6607 12.9533 16.4293 15 14.5067 15H10.7499V18.25C10.7499 18.6642 10.4141 19 9.99988 19C9.5857 19 9.24988 18.6642 9.24988 18.25V15H5.49304C3.57047 14.9999 2.33908 12.9532 3.24011 11.2549L4.85437 8.21289C4.95001 8.03252 4.99988 7.83111 4.99988 7.62695V3.5498C4.99998 2.14166 6.14155 1.00015 7.54968 1H12.4501ZM7.54968 2.5C6.96998 2.50015 6.49998 2.97009 6.49988 3.5498V7.62695C6.49988 8.07623 6.39009 8.51912 6.17957 8.91602L4.56531 11.958C4.19435 12.6573 4.70144 13.4999 5.49304 13.5H14.5067C15.2984 13.5 15.8055 12.6573 15.4344 11.958L13.8202 8.91602C13.6097 8.51913 13.4999 8.07622 13.4999 7.62695V3.5498C13.4998 2.97006 13.0298 2.50011 12.4501 2.5H7.54968Z"
    fill="currentColor"
  />
</svg>

<svg xmlns="http://www.w3.org/2000/svg" width="20" height="20" fill="none" data-fui-icon="true" viewBox="0 0 20 20"><path fill="currentColor" d="M12.45 1A2.55 2.55 0 0 1 15 3.55v4.077c0 .204.05.406.145.586l1.615 3.042c.9 1.698-.33 3.745-2.253 3.745H10.75v3.25a.75.75 0 0 1-1.5 0V15H5.493c-1.923 0-3.154-2.047-2.253-3.745l1.614-3.042C4.95 8.033 5 7.83 5 7.627V3.55A2.55 2.55 0 0 1 7.55 1zm-4.9 1.5c-.58 0-1.05.47-1.05 1.05v4.077c0 .45-.11.892-.32 1.289l-1.615 3.042a1.05 1.05 0 0 0 .928 1.542h9.014a1.05 1.05 0 0 0 .927-1.542L13.82 8.916c-.21-.397-.32-.84-.32-1.29V3.551c0-.58-.47-1.05-1.05-1.05z"/></svg>
